client/public/img/game/shared/particles/casings/casing_556x45mm.svg

<svg width="11" height="40" viewBox="0 0 11 40" fill="none" xmlns="http://www.w3.org/2000/svg">
<path d="M1.51562 37.6666V38.2417L2.05309 38.6167H8.9786L9.51607 38.2417V37.6666H1.51562Z" fill="#C9A229"/>
<path d="M1.52441 36.0098L1.76613 8.18331L2.83699 5.65811V1.36621H8.19568V5.65811L9.26654 8.18331L9.50825 36.0098L9.25466 37.035H1.77801L1.52441 36.0098Z" fill="#C9A229"/>
<rect x="2.00391" y="37.6675" width="0.633368" height="7.02539" transform="rotate(-90 2.00391 37.6675)" fill="#9D7E20" stroke="#554411" stroke-width="0.999999" stroke-miterlimit="3.99393"/>
<path d="M1.51562 37.6666V38.2417L2.05309 38.6167H8.9786L9.51607 38.2417V37.6666H9.02857V37.0333H9.25417L9.50777 36.0082L9.26605 8.18162L8.19519 5.65642L8.19519 1.36452H2.8365L2.8365 5.65642L1.76564 8.18162L1.52393 36.0082L1.77752 37.0333H2.00312V37.6666H1.51562Z" stroke="#554411" stroke-width="2" stroke-miterlimit="3.99393"/>
<path d="M9.26604 8.18164H1.76562M8.19518 5.65644H2.83649" stroke="#554411" stroke-width="2" stroke-miterlimit="3.99393"/>
</svg>

<svg xmlns="http://www.w3.org/2000/svg" width="11" height="40" fill="none"><path fill="#C9A229" d="M1.516 37.667v.575l.537.375H8.98l.537-.375v-.575zM1.524 36.01l.242-27.827 1.071-2.525V1.366h5.359v4.292l1.07 2.525.242 27.827-.253 1.025H1.778z"/><path fill="#9D7E20" stroke="#541" stroke-miterlimit="3.994" d="M2.003 37.667v-.633h7.025v.633z"/><path stroke="#541" stroke-miterlimit="3.994" stroke-width="2" d="M1.516 37.667v.575l.537.375H8.98l.537-.375v-.575H9.03v-.634h.225l.254-1.025-.242-27.826-1.07-2.526V1.365h-5.36v4.291l-1.07 2.526-.242 27.826.254 1.025h.225v.634zM9.266 8.182h-7.5m6.43-2.526h-5.36"/></svg>
